;FLAVOR:Marlin
;TIME:2383
;Filament used: 1.72497m
;Layer height: 0.2
;MINX:85.081
;MINY:70.122
;MINZ:0.2
;MAXX:149.921
;MAXY:164.878
;MAXZ:9
;Generated with Cura_SteamEngine 5.3.0
M140 S50
M105
M190 S50
M104 S200
M105
M109 S200
M82 ;absolute extrusion mode
; Ender 3 Custom Start G-code
G92 E0 ; Reset Extruder
G28 ; Home all axes
G1 Z2.0 F3000 ; Move Z Axis up little to prevent scratching of Heat Bed
G1 X0.1 Y20 Z0.3 F5000.0 ; Move to start position
G1 X0.1 Y200.0 Z0.3 F1500.0 E15 ; Draw the first line
G1 X0.4 Y200.0 Z0.3 F5000.0 ; Move to side a little
G1 X0.4 Y20 Z0.3 F1500.0 E30 ; Draw the second line
G92 E0 ; Reset Extruder
G1 Z2.0 F3000 ; Move Z Axis up little to prevent scratching of Heat Bed
G1 X5 Y20 Z0.3 F5000.0 ; Move over to prevent blob squish
G92 E0
G92 E0
G1 F2700 E-5
;LAYER_COUNT:45
;LAYER:0
M107
G0 F6000 X87.23 Y73.866 Z0.2
;TYPE:SKIRT
G1 F2700 E0
G1 F1200 X88.834 Y72.262 E0.07545
G1 X90.926 Y70.986 E0.15695
G1 X92.99 Y70.286 E0.22944
G1 X94.411 Y70.126 E0.277
G1 X140.506 Y70.122 E1.81013
G1 X142.088 Y70.298 E1.86307
G1 X144.279 Y71.084 E1.94049
G1 X146.17 Y72.266 E2.01466
G1 X147.779 Y73.875 E2.09034
G1 X148.962 Y75.769 E2.16461
G1 X149.749 Y77.962 E2.24211
G1 X149.921 Y79.502 E2.29365
G1 X149.896 Y155.69 E4.82767
G1 X149.728 Y157.122 E4.87563
G1 X148.96 Y159.251 E4.9509
G1 X147.77 Y161.134 E5.02499
G1 X146.166 Y162.738 E5.10044
G1 X144.074 Y164.014 E5.18194
G1 X142.01 Y164.714 E5.25443
G1 X140.589 Y164.874 E5.30199
G1 X94.494 Y164.878 E6.83512
G1 X92.912 Y164.702 E6.88806
G1 X90.721 Y163.916 E6.96548
G1 X88.83 Y162.734 E7.03965
G1 X87.217 Y161.121 E7.11552
G1 X85.939 Y159.027 E7.19711
G1 X85.241 Y156.969 E7.26939
G1 X85.081 Y155.546 E7.31702
G1 X85.104 Y79.31 E9.85264
G1 X85.272 Y77.878 E9.9006
G1 X86.04 Y75.749 E9.97587
G1 X87.23 Y73.866 E10.04996
G0 F6000 X87.544 Y74.118
G1 F1200 X89.086 Y72.576 E10.12249
G1 X91.094 Y71.351 E10.20072
G1 X93.075 Y70.679 E10.2703
G1 X94.456 Y70.524 E10.31652
G1 X140.462 Y70.52 E11.84669
G1 X142.001 Y70.691 E11.89819
G1 X144.102 Y71.445 E11.97243
G1 X145.918 Y72.58 E12.04366
G1 X147.465 Y74.127 E12.11643
G1 X148.601 Y75.946 E12.18775
G1 X149.356 Y78.049 E12.26207
G1 X149.523 Y79.546 E12.31217
G1 X149.499 Y155.644 E14.8432
G1 X149.337 Y157.029 E14.88958
G1 X148.599 Y159.073 E14.96186
G1 X147.456 Y160.882 E15.03303
G1 X145.914 Y162.424 E15.10556
G1 X143.906 Y163.649 E15.1838
G1 X141.925 Y164.321 E15.25337
G1 X140.544 Y164.476 E15.29959
G1 X94.538 Y164.48 E16.82976
G1 X92.999 Y164.309 E16.88126
G1 X90.898 Y163.555 E16.9555
G1 X89.082 Y162.42 E17.02673
G1 X87.531 Y160.869 E17.09968
G1 X86.305 Y158.86 E17.17796
G1 X85.634 Y156.882 E17.24743
G1 X85.479 Y155.501 E17.29366
G1 X85.501 Y79.356 E19.82625
G1 X85.663 Y77.971 E19.87263
G1 X86.401 Y75.927 E19.94491
G1 X87.544 Y74.118 E20.01608
G0 F6000 X87.858 Y74.37
G1 F1200 X89.338 Y72.89 E20.08569
G1 X91.261 Y71.717 E20.16061
G1 X93.162 Y71.072 E20.22738
G1 X94.501 Y70.922 E20.27219
G1 X140.418 Y70.918 E21.7994
G1 X141.914 Y71.084 E21.84946
G1 X143.925 Y71.806 E21.92053
G1 X145.666 Y72.894 E21.98881
G1 X147.151 Y74.379 E22.05866
G1 X148.238 Y76.119 E22.1269
G1 X148.963 Y78.14 E22.19831
G1 X149.125 Y79.59 E22.24684
G1 X149.102 Y155.597 E24.77484
G1 X148.945 Y156.936 E24.81968
G1 X148.238 Y158.895 E24.88895
G1 X147.142 Y160.63 E24.95721
G1 X145.662 Y162.11 E25.02682
G1 X143.739 Y163.283 E25.10174
G1 X141.838 Y163.928 E25.16851
G1 X140.499 Y164.078 E25.21332
G1 X94.582 Y164.082 E26.74053
G1 X93.086 Y163.916 E26.79059
G1 X91.075 Y163.194 E26.86166
G1 X89.334 Y162.106 E26.92994
G1 X87.845 Y160.617 E26.99998
G1 X86.671 Y158.693 E27.07494
G1 X86.027 Y156.795 E27.14161
G1 X85.877 Y155.456 E27.18642
G1 X85.898 Y79.403 E29.71595
G1 X86.055 Y78.064 E29.76079
G1 X86.762 Y76.105 E29.83006
G1 X87.858 Y74.37 E29.89832
G0 F6000 X88.172 Y74.622
G1 F1200 X89.59 Y73.204 E29.96502
G1 X91.429 Y72.082 E30.03667
G1 X93.248 Y71.465 E30.10056
G1 X94.545 Y71.32 E30.14396
G1 X140.374 Y71.316 E31.66824
G1 X141.823 Y71.477 E31.71673
G1 X143.752 Y72.169 E31.78489
G1 X145.414 Y73.208 E31.85009
G1 X146.837 Y74.631 E31.91702
G1 X147.877 Y76.296 E31.98231
G1 X148.57 Y78.227 E32.05055
G1 X148.727 Y79.634 E32.09764
G1 X148.705 Y155.551 E34.62265
G1 X148.554 Y156.843 E34.66591
G1 X147.877 Y158.717 E34.73218
G1 X146.828 Y160.378 E34.79752
G1 X145.41 Y161.796 E34.86422
G1 X143.571 Y162.918 E34.93587
G1 X141.752 Y163.535 E34.99976
G1 X140.455 Y163.68 E35.04316
G1 X94.626 Y163.684 E36.56744
G1 X93.177 Y163.523 E36.61593
G1 X91.248 Y162.831 E36.6841
G1 X89.586 Y161.792 E36.74929
G1 X88.159 Y160.365 E36.81641
G1 X87.036 Y158.525 E36.88811
G1 X86.42 Y156.709 E36.95189
G1 X86.275 Y155.412 E36.99529
G1 X86.295 Y79.449 E39.52183
G1 X86.446 Y78.157 E39.5651
G1 X87.123 Y76.283 E39.63137
G1 X88.172 Y74.622 E39.69671
G0 F6000 X88.486 Y74.874
G1 F1200 X89.842 Y73.518 E39.76049
G1 X91.596 Y72.448 E39.82883
G1 X93.335 Y71.858 E39.88991
G1 X94.589 Y71.718 E39.93187
G1 X140.33 Y71.714 E41.45323
G1 X141.736 Y71.87 E41.50028
G1 X143.575 Y72.53 E41.56526
G1 X145.162 Y73.522 E41.62751
G1 X146.523 Y74.883 E41.69153
G1 X147.516 Y76.473 E41.75388
G1 X148.177 Y78.314 E41.81893
G1 X148.329 Y79.678 E41.86458
G1 X148.308 Y155.504 E44.38657
G1 X148.162 Y156.75 E44.42829
G1 X147.516 Y158.539 E44.49155
G1 X146.514 Y160.126 E44.55398
G1 X145.158 Y161.482 E44.61776
G1 X143.404 Y162.552 E44.6861
G1 X141.665 Y163.142 E44.74717
G1 X140.411 Y163.282 E44.78914
G1 X94.67 Y163.286 E46.31049
G1 X93.264 Y163.13 E46.35754
G1 X91.425 Y162.47 E46.42253
G1 X89.838 Y161.478 E46.48478
G1 X88.473 Y160.113 E46.54898
G1 X87.402 Y158.358 E46.61736
G1 X86.813 Y156.622 E46.67834
G1 X86.673 Y155.368 E46.7203
G1 X86.692 Y79.496 E49.24382
G1 X86.838 Y78.25 E49.28554
G1 X87.484 Y76.461 E49.34881
G1 X88.486 Y74.874 E49.41123
G0 F6000 X88.8 Y75.126
G1 F1200 X90.094 Y73.832 E49.4721
G1 X91.764 Y72.813 E49.53716
G1 X93.421 Y72.251 E49.59536
G1 X94.633 Y72.116 E49.63592
G1 X140.286 Y72.112 E51.15435
G1 X141.649 Y72.263 E51.19996
G1 X143.398 Y72.891 E51.26176
G1 X144.91 Y73.836 E51.32107
G1 X146.209 Y75.135 E51.38217
G1 X147.153 Y76.646 E51.44143
G1 X147.784 Y78.405 E51.50358
G1 X147.931 Y79.722 E51.54766
G1 X147.911 Y155.458 E54.06665
G1 X147.771 Y156.657 E54.1068
G1 X147.155 Y158.361 E54.16706
G1 X146.2 Y159.874 E54.22657
G1 X144.906 Y161.168 E54.28744
G1 X143.236 Y162.187 E54.3525
G1 X141.579 Y162.749 E54.4107
G1 X140.367 Y162.884 E54.45126
G1 X94.714 Y162.888 E55.96969
G1 X93.351 Y162.737 E56.0153
G1 X91.602 Y162.109 E56.0771
G1 X90.09 Y161.164 E56.13641
G1 X88.787 Y159.861 E56.1977
G1 X87.767 Y158.19 E56.26281
G1 X87.206 Y156.536 E56.3209
G1 X87.071 Y155.324 E56.36146
G1 X87.089 Y79.542 E58.88198
G1 X87.229 Y78.343 E58.92213
G1 X87.845 Y76.639 E58.9824
G1 X88.8 Y75.126 E59.04191
G0 F6000 X89.112 Y75.38
G1 F1200 X90.346 Y74.146 E59.09995
G1 X91.931 Y73.179 E59.1617
G1 X93.508 Y72.644 E59.21709
G1 X94.677 Y72.514 E59.25621
G1 X140.242 Y72.51 E60.77171
G1 X141.558 Y72.656 E60.81575
G1 X143.225 Y73.254 E60.87465
G1 X144.658 Y74.15 E60.93086
G1 X145.895 Y75.387 E60.98905
G1 X146.792 Y76.823 E61.04536
G1 X147.391 Y78.492 E61.10434
G1 X147.533 Y79.766 E61.14698
G1 X147.514 Y155.411 E63.66294
G1 X147.379 Y156.564 E63.70155
G1 X146.793 Y158.186 E63.75891
G1 X145.888 Y159.62 E63.81531
G1 X144.654 Y160.854 E63.87335
G1 X143.069 Y161.821 E63.93511
G1 X141.492 Y162.356 E63.99049
G1 X140.323 Y162.486 E64.02962
G1 X94.758 Y162.49 E65.54511
G1 X93.442 Y162.344 E65.58915
G1 X91.775 Y161.746 E65.64806
G1 X90.342 Y160.85 E65.70427
G1 X89.101 Y159.609 E65.76264
G1 X88.133 Y158.023 E65.82444
G1 X87.599 Y156.449 E65.87972
G1 X87.469 Y155.28 E65.91884
G1 X87.486 Y79.589 E68.43634
G1 X87.621 Y78.436 E68.47495
G1 X88.207 Y76.814 E68.53231
G1 X89.112 Y75.38 E68.58871
G0 F6000 X89.424 Y75.634
G1 F1200 X90.598 Y74.46 E68.64393
G1 X92.098 Y73.545 E68.70237
G1 X93.595 Y73.037 E68.75495
G1 X94.721 Y72.912 E68.79263
G1 X140.198 Y72.908 E70.3052
G1 X141.471 Y73.049 E70.3478
G1 X143.048 Y73.615 E70.40353
G1 X144.406 Y74.464 E70.45679
G1 X145.581 Y75.639 E70.51206
G1 X146.431 Y77 E70.56543
G1 X146.998 Y78.579 E70.62123
G1 X147.135 Y79.81 E70.66243
G1 X147.117 Y155.364 E73.17537
G1 X146.987 Y156.471 E73.21244
G1 X146.431 Y158.011 E73.26689
G1 X145.576 Y159.366 E73.32018
G1 X144.402 Y160.54 E73.37541
G1 X142.902 Y161.455 E73.43384
G1 X141.405 Y161.963 E73.48642
G1 X140.279 Y162.088 E73.5241
G1 X94.802 Y162.092 E75.03668
G1 X93.529 Y161.951 E75.07928
G1 X91.952 Y161.385 E75.135
G1 X90.594 Y160.536 E75.18827
G1 X89.415 Y159.357 E75.24373
G1 X88.498 Y157.855 E75.30226
G1 X87.992 Y156.363 E75.35466
G1 X87.867 Y155.236 E75.39237
G1 X87.883 Y79.636 E77.90684
G1 X88.013 Y78.529 E77.94391
G1 X88.569 Y76.989 E77.99837
G1 X89.424 Y75.634 E78.05166
G0 F6000 X89.736 Y75.888
G1 F1200 X90.85 Y74.774 E78.10406
G1 X92.266 Y73.91 E78.15923
G1 X93.681 Y73.43 E78.20892
G1 X94.765 Y73.31 E78.2452
G1 X140.154 Y73.306 E79.75484
G1 X141.384 Y73.442 E79.796
G1 X142.871 Y73.976 E79.84855
G1 X144.154 Y74.778 E79.89888
G1 X145.267 Y75.891 E79.95123
G1 X146.068 Y77.173 E80.00151
G1 X146.605 Y78.67 E80.0544
G1 X146.737 Y79.854 E80.09403
G1 X146.72 Y155.318 E82.60397
G1 X146.596 Y156.378 E82.63947
G1 X146.069 Y157.836 E82.69103
G1 X145.264 Y159.112 E82.74121
G1 X144.15 Y160.226 E82.79361
G1 X142.734 Y161.09 E82.84878
G1 X141.319 Y161.57 E82.89848
G1 X140.235 Y161.69 E82.93475
G1 X94.846 Y161.694 E84.4444
G1 X93.616 Y161.558 E84.48556
G1 X92.129 Y161.024 E84.53811
G1 X90.846 Y160.222 E84.58843
G1 X89.729 Y159.105 E84.64097
G1 X88.864 Y157.688 E84.69619
G1 X88.385 Y156.276 E84.74578
G1 X88.265 Y155.192 E84.78205
G1 X88.28 Y79.682 E87.29353
G1 X88.404 Y78.622 E87.32902
G1 X88.931 Y77.164 E87.38059
G1 X89.736 Y75.888 E87.43077
G0 F6000 X90.048 Y76.142
G1 F1200 X91.102 Y75.088 E87.48034
G1 X92.434 Y74.275 E87.53225
G1 X93.77 Y73.822 E87.57917
G1 X94.765 Y73.71 E87.61247
G1 X140.11 Y73.704 E89.12065
G1 X141.293 Y73.835 E89.16024
G1 X142.698 Y74.339 E89.20988
G1 X143.902 Y75.092 E89.25712
G1 X144.953 Y76.143 E89.30655
G1 X145.707 Y77.35 E89.35389
G1 X146.212 Y78.757 E89.40361
G1 X146.339 Y79.898 E89.44179
G1 X146.323 Y155.271 E91.94871
G1 X146.204 Y156.285 E91.98266
G1 X145.707 Y157.661 E92.03132
G1 X144.952 Y158.858 E92.07839
G1 X143.898 Y159.912 E92.12797
G1 X142.566 Y160.725 E92.17987
G1 X141.23 Y161.178 E92.22679
G1 X140.235 Y161.29 E92.2601
G1 X94.89 Y161.296 E93.76828
G1 X93.707 Y161.165 E93.80786
G1 X92.302 Y160.661 E93.85751
G1 X91.098 Y159.908 E93.90474
G1 X90.043 Y158.853 E93.95437
G1 X89.23 Y157.521 E94.00627
G1 X88.778 Y156.189 E94.05305
G1 X88.663 Y155.148 E94.08789
G1 X88.677 Y79.729 E96.59633
G1 X88.796 Y78.715 E96.63029
G1 X89.293 Y77.339 E96.67895
G1 X90.048 Y76.142 E96.72602
G0 F6000 X90.36 Y76.396
G1 F1200 X91.354 Y75.402 E96.77278
G1 X92.602 Y74.64 E96.82141
G1 X93.855 Y74.215 E96.86542
G1 X94.81 Y74.108 E96.89738
G1 X140.066 Y74.102 E98.4026
G1 X141.206 Y74.228 E98.44075
G1 X142.521 Y74.7 E98.48722
G1 X143.65 Y75.406 E98.5315
G1 X144.639 Y76.395 E98.57802
G1 X145.346 Y77.527 E98.62241
G1 X145.819 Y78.844 E98.66896
G1 X145.941 Y79.942 E98.7057
G1 X145.926 Y155.225 E101.20962
G1 X145.813 Y156.192 E101.24201
G1 X145.345 Y157.486 E101.28777
G1 X144.64 Y158.604 E101.33173
G1 X143.646 Y159.598 E101.37849
G1 X142.398 Y160.36 E101.42712
G1 X141.145 Y160.785 E101.47113
G1 X140.19 Y160.892 E101.50309
G1 X94.934 Y160.898 E103.00831
G1 X93.794 Y160.772 E103.04646
G1 X92.479 Y160.3 E103.09293
G1 X91.35 Y159.594 E103.13722
G1 X90.357 Y158.601 E103.18392
G1 X89.595 Y157.353 E103.23256
G1 X89.17 Y156.1 E103.27657
G1 X89.063 Y155.148 E103.30843
G1 X89.074 Y79.775 E105.81535
G1 X89.187 Y78.808 E105.84773
G1 X89.655 Y77.514 E105.89349
G1 X90.36 Y76.396 E105.93745
G0 F6000 X90.672 Y76.65
G1 F1200 X91.606 Y75.716 E105.98139
G1 X92.769 Y75.006 E106.02671
G1 X93.942 Y74.608 E106.06791
G1 X94.854 Y74.506 E106.09843
G1 X140.022 Y74.5 E107.60072
G1 X141.119 Y74.621 E107.63743
G1 X142.344 Y75.061 E107.68072
G1 X143.398 Y75.72 E107.72207
G1 X144.325 Y76.647 E107.76567
G1 X144.983 Y77.7 E107.80697
G1 X145.426 Y78.935 E107.85061
G1 X145.543 Y79.986 E107.88578
G1 X145.529 Y155.178 E110.38667
G1 X145.421 Y156.099 E110.41752
G1 X144.983 Y157.311 E110.46038
G1 X144.328 Y158.35 E110.50123
G1 X143.394 Y159.284 E110.54516
G1 X142.231 Y159.994 E110.59048
G1 X141.058 Y160.392 E110.63168
G1 X140.146 Y160.494 E110.66221
G1 X94.978 Y160.5 E112.1645
G1 X93.881 Y160.379 E112.20121
G1 X92.656 Y159.939 E112.2445
G1 X91.602 Y159.28 E112.28584
G1 X90.671 Y158.349 E112.32963
G1 X89.961 Y157.186 E112.37495
G1 X89.563 Y156.013 E112.41615
G1 X89.461 Y155.103 E112.44661
G1 X89.471 Y79.822 E114.95047
G1 X89.579 Y78.901 E114.98131
G1 X90.017 Y77.689 E115.02417
G1 X90.672 Y76.65 E115.06502
G0 F6000 X90.984 Y76.904
G1 F1200 X91.858 Y76.03 E115.10613
G1 X92.936 Y75.372 E115.14814
G1 X94.029 Y75.001 E115.18653
G1 X94.898 Y74.904 E115.21561
G1 X139.978 Y74.898 E116.71498
G1 X141.032 Y75.014 E116.75025
G1 X142.167 Y75.422 E116.79036
G1 X143.146 Y76.034 E116.82876
G1 X144.011 Y76.899 E116.86945
G1 X144.622 Y77.877 E116.9078
G1 X145.033 Y79.022 E116.94827
G1 X145.145 Y80.03 E116.982
G1 X145.132 Y155.131 E119.47987
G1 X145.029 Y156.006 E119.50917
G1 X144.621 Y157.136 E119.54913
G1 X144.016 Y158.096 E119.58687
G1 X143.142 Y158.97 E119.62798
G1 X142.064 Y159.628 E119.66999
G1 X140.971 Y159.999 E119.70838
G1 X140.102 Y160.096 E119.73746
G1 X95.022 Y160.102 E121.23683
G1 X93.968 Y159.986 E121.2721
G1 X92.833 Y159.578 E121.31221
G1 X91.854 Y158.966 E121.35061
G1 X90.985 Y158.097 E121.39149
G1 X90.327 Y157.019 E121.43349
G1 X89.956 Y155.926 E121.47188
G1 X89.859 Y155.059 E121.5009
G1 X89.868 Y79.869 E124.00173
G1 X89.971 Y78.994 E124.03103
G1 X90.379 Y77.864 E124.07099
G1 X90.984 Y76.904 E124.10873
G0 F6000 X91.299 Y77.155
G1 F1200 X92.108 Y76.346 E124.14679
G1 X93.105 Y75.737 E124.18564
G1 X94.116 Y75.394 E124.22115
G1 X94.942 Y75.302 E124.24879
G1 X139.978 Y75.298 E125.7467
G1 X140.937 Y75.406 E125.7788
G1 X141.994 Y75.785 E125.81614
G1 X142.894 Y76.348 E125.85145
G1 X143.697 Y77.151 E125.88922
G1 X144.261 Y78.054 E125.92463
G1 X144.64 Y79.109 E125.96192
G1 X144.747 Y80.074 E125.99421
G1 X144.735 Y155.084 E128.48905
G1 X144.637 Y155.913 E128.51682
G1 X144.26 Y156.957 E128.55374
G1 X143.701 Y157.845 E128.58864
G1 X142.892 Y158.654 E128.62669
G1 X141.895 Y159.263 E128.66555
G1 X140.884 Y159.606 E128.70105
G1 X140.058 Y159.698 E128.7287
G1 X95.022 Y159.702 E130.2266
G1 X94.063 Y159.594 E130.2587
G1 X93.006 Y159.215 E130.29605
G1 X92.106 Y158.652 E130.33136
G1 X91.301 Y157.847 E130.36922
G1 X90.692 Y156.85 E130.40808
G1 X90.349 Y155.839 E130.44359
G1 X90.257 Y155.015 E130.47116
G1 X90.265 Y79.916 E132.96897
G1 X90.363 Y79.087 E132.99673
G1 X90.74 Y78.043 E133.03365
G1 X91.299 Y77.155 E133.06855
G0 F6000 X91.614 Y77.406
G1 F1200 X92.36 Y76.66 E133.10364
G1 X93.272 Y76.103 E133.13918
G1 X94.203 Y75.787 E133.17188
G1 X94.986 Y75.7 E133.19808
G1 X139.933 Y75.696 E134.69303
G1 X140.85 Y75.799 E134.72372
G1 X141.817 Y76.146 E134.75789
G1 X142.642 Y76.662 E134.79025
G1 X143.383 Y77.403 E134.82511
G1 X143.898 Y78.227 E134.85743
G1 X144.247 Y79.2 E134.89181
G1 X144.349 Y80.118 E134.92253
G1 X144.338 Y155.037 E137.41434
G1 X144.245 Y155.82 E137.44057
G1 X143.899 Y156.778 E137.47445
G1 X143.386 Y157.594 E137.50651
G1 X142.64 Y158.34 E137.5416
G1 X141.728 Y158.897 E137.57714
G1 X140.797 Y159.213 E137.60984
G1 X140.014 Y159.3 E137.63604
G1 X95.067 Y159.304 E139.13099
G1 X94.15 Y159.201 E139.16168
G1 X93.183 Y158.854 E139.19585
G1 X92.358 Y158.338 E139.22821
G1 X91.615 Y157.595 E139.26316
G1 X91.058 Y156.683 E139.2987
G1 X90.742 Y155.752 E139.3314
G1 X90.655 Y154.971 E139.35754
G1 X90.662 Y79.963 E141.85232
G1 X90.755 Y79.18 E141.87854
G1 X91.101 Y78.222 E141.91242
G1 X91.614 Y77.406 E141.94448
G0 F6000 X91.929 Y77.657
G1 F1200 X92.612 Y76.974 E141.9766
G1 X93.439 Y76.469 E142.00883
G1 X94.29 Y76.18 E142.03873
G1 X95.03 Y76.098 E142.06349
G1 X139.888 Y76.094 E143.55547
G1 X140.763 Y76.192 E143.58476
G1 X141.64 Y76.507 E143.61575
G1 X142.39 Y76.976 E143.64517
G1 X143.069 Y77.655 E143.67711
G1 X143.537 Y78.404 E143.70648
